packages/astro-components-stencil/src/icons/credit-card.svg

<svg xmlns="http://www.w3.org/2000/svg" viewBox="0 0 24 24"><g xmlns="http://www.w3.org/2000/svg" id="credit-card" fill-rule="nonzero">
            <path d="M20 4H4c-1.11 0-1.99.89-1.99 2L2 18c0 1.11.89 2 2 2h16c1.11 0 2-.89 2-2V6c0-1.11-.89-2-2-2zm-1 14H5c-.55 0-1-.45-1-1v-5h16v5c0 .55-.45 1-1 1zm1-10H4V6h16v2z"/>
        </g></svg>

<svg width="24" height="24" viewBox="0 0 24 24" fill="none" xmlns="http://www.w3.org/2000/svg">
<path fill-rule="evenodd" clip-rule="evenodd" d="M20 4H4C2.89 4 2.01 4.89 2.01 6L2 18C2 19.11 2.89 20 4 20H20C21.11 20 22 19.11 22 18V6C22 4.89 21.11 4 20 4ZM19 18H5C4.45 18 4 17.55 4 17V12H20V17C20 17.55 19.55 18 19 18ZM4 8H20V6H4V8Z" fill="black"/>
</svg>
